X: 0
T: et_lidet_barn
Z: C. Balle, 1855
Z: Midi copyright © 2000 by Jørgen Ebert
Z: All Rights Reserved
L: 1/4
M: 4/4
V: P1 name="Right Hand"
%%MIDI program 1 19
V: P2 name="Left Hand"
%%MIDI program 2 19
V: P3 name="Tempo Track"
%%MIDI program 3 -1
K: Bb
[V: P1]  F [B,D] [DF] [DB] | [G/B/]c/ [F3/d3/] [D/B/] F | [DF] [EG] E [E/G/][G/B/] | [F/A/][E/G/] [DF] C/E/ [B,D] | F [B,D] [DF] [DB] | [G/B/]c/ [F3/d3/] [D/B/] F | [DF] [EG] E [E/G/][G/B/] | [F/A/][E/G/] [DF] C/E/ [B,D] | [B,D] [A,C] [B,D] [CE] | [A,C] [B,3/D3/] [C/E/] [DF] | [DF] [C=E] F G | =E [C3/F3/] G/ A | [CF] [DF] D [DB] | [=EG] [Fc] E F | [CF] [CE] F [B,D] | [DF] [C/E/][B,/D/] [C/E/][A,/F/] [B,D] | [DF] [EG] E [EG] | [Gc] [F/B/]A/ c/B/ A | F [F3/d3/] B/ [E/G/][G/B/] | [F/A/][E/G/] [DF] C B,|]
[V: P2]  [F,,F,] [B,,F,] B, [G,B,] | [E,G,] [B,,B,] F, [D,B,] | [B,,B,] [E,B,] G, [E,-B,-] | [E,B,] [F,B,] [F,,A,] [B,,F,] | [F,,F,] [B,,F,] B, [G,B,] | [E,G,] [B,,B,] F, [D,B,] | [B,,B,] [E,B,] G, [E,-B,-] | [E,B,] [F,B,] [F,,A,] [B,,F,] | [B,,F,] F,2 F,- | F, [B,,3F,3] | [B,,B,] [C,G,] A, B, | G, [F,3/A,3/] G,/ F, | [F,A,] [B,,2B,2] [G,,B,] | [C,/C/]B,,/ [A,,C] C,/B,/ [F,A,] | [F,A,] [A,,2F,2] [B,,-F,-] | [B,,F,] F,2 [B,,F,] | [B,,B,] [E,B,] G, [E,B,] | E [F,/D/]C/ E/D/ C | [F,A,] [B,,B,] D, [E,-B,-] | [E,B,] [F,B,] [F,,A,] [B,,D,B,]|]
[V: P3]  z4 | z4 | z4 | z4 | z4 | z4 | z4 | z4 | z4 | z4 | z4 | z4 | z4 |z3z | z4 | z4 | z4 | z4 | z4 |z3z|]

